svg/color/antex.svg

<?xml version="1.0" encoding="UTF-8" ?>
<!DOCTYPE svg PUBLIC "-//W3C//DTD SVG 1.1//EN" "http://www.w3.org/Graphics/SVG/1.1/DTD/svg11.dtd">
<svg width="250pt" height="250pt" viewBox="0 0 250 250" version="1.1" xmlns="http://www.w3.org/2000/svg">
<g id="#ffffffff">
<path fill="#ffffff" opacity="1.00" d=" M 0.00 0.00 L 250.00 0.00 L 250.00 250.00 L 0.00 250.00 L 0.00 0.00 M 92.73 84.73 C 86.72 91.10 78.10 93.89 71.69 99.75 C 56.17 113.02 46.46 133.46 47.31 154.00 C 46.97 167.83 51.64 181.48 59.22 192.95 C 67.26 204.11 78.19 213.46 91.11 218.43 C 110.24 226.47 132.82 224.69 150.95 214.83 C 158.86 210.15 166.40 204.48 171.98 197.09 C 182.57 183.90 187.99 166.79 187.39 149.93 C 187.36 145.23 185.43 140.69 185.72 136.00 C 188.04 130.22 192.22 125.16 193.25 118.88 C 193.72 116.66 192.71 113.70 190.12 113.51 C 179.96 111.15 170.14 106.67 162.35 99.64 C 156.95 95.03 150.70 91.53 144.25 88.61 C 138.00 85.76 131.13 84.77 124.37 83.93 C 127.63 81.00 130.99 78.19 134.21 75.22 C 138.08 71.40 140.99 66.75 144.81 62.88 C 150.73 68.10 156.54 73.86 164.07 76.71 C 167.90 78.27 172.36 79.21 176.27 77.34 C 176.70 74.14 176.70 70.90 176.37 67.69 C 170.12 66.31 163.64 65.33 157.98 62.16 C 152.37 59.36 147.77 55.04 143.16 50.88 C 136.85 44.04 132.80 35.50 129.01 27.10 C 119.41 47.67 109.07 68.59 92.73 84.73 M 158.13 28.40 C 154.29 35.27 150.71 42.29 146.84 49.15 C 145.29 51.52 146.92 53.78 148.92 55.14 C 153.13 50.68 154.16 44.06 158.58 39.88 C 161.60 44.13 163.99 48.78 166.80 53.16 C 173.24 62.97 181.55 72.20 192.63 76.72 C 195.84 77.95 200.57 78.61 202.11 74.65 C 202.81 72.22 203.42 68.48 201.09 66.77 C 197.80 65.41 194.24 64.90 190.92 63.65 C 181.87 60.16 173.80 54.11 168.15 46.20 C 163.96 40.77 161.59 34.27 158.13 28.40 Z" />
<path fill="#ffffff" opacity="1.00" d=" M 128.16 39.91 C 132.85 45.92 136.96 52.39 140.99 58.85 C 134.64 67.09 128.37 75.79 119.58 81.62 C 115.59 84.45 110.45 83.37 105.88 83.55 C 108.34 77.83 112.46 73.05 115.29 67.53 C 120.43 58.73 123.90 49.13 128.16 39.91 Z" />
<path fill="#ffffff" opacity="1.00" d=" M 120.45 91.77 C 127.94 90.90 135.90 90.91 142.83 94.27 C 154.13 99.18 162.76 110.01 164.68 122.24 C 166.53 129.22 164.80 136.53 162.21 143.09 C 157.33 155.02 145.72 163.71 133.01 165.48 C 125.65 166.24 118.02 165.34 111.41 161.87 C 99.37 156.06 91.27 143.30 90.57 130.02 C 89.72 112.25 102.99 95.24 120.45 91.77 M 110.08 102.13 C 100.55 110.15 96.83 124.03 100.75 135.80 C 103.59 145.25 111.31 153.04 120.71 156.02 C 131.36 159.56 144.04 157.09 152.04 149.04 C 163.39 138.78 165.37 119.40 155.57 107.47 C 155.32 111.60 156.06 116.08 153.80 119.81 C 151.09 124.08 146.30 127.47 141.02 126.83 C 131.02 128.13 123.02 115.75 127.85 107.04 C 130.24 101.29 136.39 98.92 142.07 97.83 C 141.68 97.45 140.90 96.68 140.51 96.30 C 130.21 92.82 118.39 95.18 110.08 102.13 Z" />
</g>
<g id="#feb802ff">
<path fill="#feb802" opacity="1.00" d=" M 92.73 84.73 C 109.07 68.59 119.41 47.67 129.01 27.10 C 132.80 35.50 136.85 44.04 143.16 50.88 C 147.77 55.04 152.37 59.36 157.98 62.16 C 163.64 65.33 170.12 66.31 176.37 67.69 C 176.70 70.90 176.70 74.14 176.27 77.34 C 172.36 79.21 167.90 78.27 164.07 76.71 C 156.54 73.86 150.73 68.10 144.81 62.88 C 140.99 66.75 138.08 71.40 134.21 75.22 C 130.99 78.19 127.63 81.00 124.37 83.93 C 131.13 84.77 138.00 85.76 144.25 88.61 C 150.70 91.53 156.95 95.03 162.35 99.64 C 170.14 106.67 179.96 111.15 190.12 113.51 C 192.71 113.70 193.72 116.66 193.25 118.88 C 192.22 125.16 188.04 130.22 185.72 136.00 C 185.43 140.69 187.36 145.23 187.39 149.93 C 187.99 166.79 182.57 183.90 171.98 197.09 C 166.40 204.48 158.86 210.15 150.95 214.83 C 132.82 224.69 110.24 226.47 91.11 218.43 C 78.19 213.46 67.26 204.11 59.22 192.95 C 51.64 181.48 46.97 167.83 47.31 154.00 C 46.46 133.46 56.17 113.02 71.69 99.75 C 78.10 93.89 86.72 91.10 92.73 84.73 M 128.16 39.91 C 123.90 49.13 120.43 58.73 115.29 67.53 C 112.46 73.05 108.34 77.83 105.88 83.55 C 110.45 83.37 115.59 84.45 119.58 81.62 C 128.37 75.79 134.64 67.09 140.99 58.85 C 136.96 52.39 132.85 45.92 128.16 39.91 M 120.45 91.77 C 102.99 95.24 89.72 112.25 90.57 130.02 C 91.27 143.30 99.37 156.06 111.41 161.87 C 118.02 165.34 125.65 166.24 133.01 165.48 C 145.72 163.71 157.33 155.02 162.21 143.09 C 164.80 136.53 166.53 129.22 164.68 122.24 C 162.76 110.01 154.13 99.18 142.83 94.27 C 135.90 90.91 127.94 90.90 120.45 91.77 Z" />
<path fill="#feb802" opacity="1.00" d=" M 158.13 28.40 C 161.59 34.27 163.96 40.77 168.15 46.20 C 173.80 54.11 181.87 60.16 190.92 63.65 C 194.24 64.90 197.80 65.41 201.09 66.77 C 203.42 68.48 202.81 72.22 202.11 74.65 C 200.57 78.61 195.84 77.95 192.63 76.72 C 181.55 72.20 173.24 62.97 166.80 53.16 C 163.99 48.78 161.60 44.13 158.58 39.88 C 154.16 44.06 153.13 50.68 148.92 55.14 C 146.92 53.78 145.29 51.52 146.84 49.15 C 150.71 42.29 154.29 35.27 158.13 28.40 Z" />
<path fill="#feb802" opacity="1.00" d=" M 110.08 102.13 C 118.39 95.18 130.21 92.82 140.51 96.30 C 140.90 96.68 141.68 97.45 142.07 97.83 C 136.39 98.92 130.24 101.29 127.85 107.04 C 123.02 115.75 131.02 128.13 141.02 126.83 C 146.30 127.47 151.09 124.08 153.80 119.81 C 156.06 116.08 155.32 111.60 155.57 107.47 C 165.37 119.40 163.39 138.78 152.04 149.04 C 144.04 157.09 131.36 159.56 120.71 156.02 C 111.31 153.04 103.59 145.25 100.75 135.80 C 96.83 124.03 100.55 110.15 110.08 102.13 Z" />
</g>
</svg>

<?xml version="1.0" encoding="utf-8"?>
<!-- Generator: Adobe Illustrator 26.0.3, SVG Export Plug-In . SVG Version: 6.00 Build 0)  -->
<svg version="1.1" id="Layer_1" xmlns="http://www.w3.org/2000/svg" xmlns:xlink="http://www.w3.org/1999/xlink" x="0px" y="0px"
	 viewBox="0 0 250 250" style="enable-background:new 0 0 250 250;" xml:space="preserve">
<style type="text/css">
	.st0{fill:#FFFFFF;}
	.st1{fill:#FEB802;}
</style>
<circle class="st0" cx="124" cy="124.5" r="125"/>
<g id="_x23_ffffffff">
	<path class="st0" d="M128.2,39.9c4.7,6,8.8,12.5,12.8,18.9c-6.4,8.2-12.6,16.9-21.4,22.8c-4,2.8-9.1,1.8-13.7,1.9
		c2.5-5.7,6.6-10.5,9.4-16C120.4,58.7,123.9,49.1,128.2,39.9z"/>
	<path class="st0" d="M120.4,91.8c7.5-0.9,15.4-0.9,22.4,2.5c11.3,4.9,19.9,15.7,21.8,28c1.9,7,0.1,14.3-2.5,20.8
		c-4.9,11.9-16.5,20.6-29.2,22.4c-7.4,0.8-15-0.1-21.6-3.6c-12-5.8-20.1-18.6-20.8-31.8C89.7,112.2,103,95.2,120.4,91.8
		 M110.1,102.1c-9.5,8-13.2,21.9-9.3,33.7c2.8,9.4,10.6,17.2,20,20.2c10.7,3.5,23.3,1.1,31.3-7c11.4-10.3,13.3-29.6,3.5-41.6
		c-0.2,4.1,0.5,8.6-1.8,12.3c-2.7,4.3-7.5,7.7-12.8,7c-10,1.3-18-11.1-13.2-19.8c2.4-5.8,8.5-8.1,14.2-9.2c-0.4-0.4-1.2-1.2-1.6-1.5
		C130.2,92.8,118.4,95.2,110.1,102.1z"/>
</g>
<g id="_x23_feb802ff">
	<path class="st1" d="M92.7,84.7c16.3-16.1,26.7-37.1,36.3-57.6c3.8,8.4,7.8,16.9,14.2,23.8c4.6,4.2,9.2,8.5,14.8,11.3
		c5.7,3.2,12.1,4.1,18.4,5.5c0.3,3.2,0.3,6.4-0.1,9.6c-3.9,1.9-8.4,0.9-12.2-0.6c-7.5-2.8-13.3-8.6-19.3-13.8
		c-3.8,3.9-6.7,8.5-10.6,12.3c-3.2,3-6.6,5.8-9.8,8.7c6.8,0.8,13.6,1.8,19.9,4.7c6.4,2.9,12.7,6.4,18.1,11
		c7.8,7,17.6,11.5,27.8,13.9c2.6,0.2,3.6,3.2,3.1,5.4c-1,6.3-5.2,11.3-7.5,17.1c-0.3,4.7,1.6,9.2,1.7,13.9
		c0.6,16.9-4.8,34-15.4,47.2c-5.6,7.4-13.1,13.1-21,17.7c-18.1,9.9-40.7,11.6-59.8,3.6c-12.9-5-23.8-14.3-31.9-25.5
		C51.6,181.5,47,167.8,47.3,154c-0.9-20.5,8.9-41,24.4-54.2C78.1,93.9,86.7,91.1,92.7,84.7 M128.2,39.9c-4.3,9.2-7.7,18.8-12.9,27.6
		c-2.8,5.5-7,10.3-9.4,16c4.6-0.2,9.7,0.9,13.7-1.9c8.8-5.8,15.1-14.5,21.4-22.8C137,52.4,132.9,45.9,128.2,39.9 M120.4,91.8
		C103,95.2,89.7,112.2,90.6,130c0.7,13.3,8.8,26,20.8,31.8c6.6,3.5,14.2,4.4,21.6,3.6c12.7-1.8,24.3-10.5,29.2-22.4
		c2.6-6.6,4.3-13.9,2.5-20.8c-1.9-12.2-10.5-23.1-21.8-28C135.9,90.9,127.9,90.9,120.4,91.8z"/>
	<path class="st1" d="M158.1,28.4c3.5,5.9,5.8,12.4,10,17.8c5.7,7.9,13.7,14,22.8,17.5c3.3,1.2,6.9,1.8,10.2,3.1
		c2.3,1.7,1.7,5.5,1,7.9c-1.5,4-6.3,3.3-9.5,2.1c-11.1-4.5-19.4-13.8-25.8-23.6c-2.8-4.4-5.2-9-8.2-13.3c-4.4,4.2-5.4,10.8-9.7,15.3
		c-2-1.4-3.6-3.6-2.1-6C150.7,42.3,154.3,35.3,158.1,28.4z"/>
	<path class="st1" d="M110.1,102.1c8.3-6.9,20.1-9.3,30.4-5.8c0.4,0.4,1.2,1.1,1.6,1.5c-5.7,1.1-11.8,3.5-14.2,9.2
		c-4.8,8.7,3.2,21.1,13.2,19.8c5.3,0.6,10.1-2.8,12.8-7c2.3-3.7,1.5-8.2,1.8-12.3c9.8,11.9,7.8,31.3-3.5,41.6
		c-8,8.1-20.7,10.5-31.3,7c-9.4-3-17.1-10.8-20-20.2C96.8,124,100.6,110.2,110.1,102.1z"/>
</g>
</svg>
